!!!OTL: Deine Schönheit wird vergehn (2-88) S. 258
!!!id: P0959
**kern
*clefG2
*k[b-]
*F:
{4a
8a
8g
=1
4f
8.f
16f
4b-
4b-
=2
2a}
=3
{4cc
4ff
=4
4dd
8cc
8b-
4a
4g
=5
2f}
=6
{4a
4a
=7
4f
4f
4b-
4b-
=8
2a}
=9
{4cc
4ff
=10
4dd
8cc
8b-
4a
4g
=11
2f}
=12
{4a
4a
=13
2f
4b-
4b-
=14
2a}
=15
{4cc
4ff
=16
4dd
8cc
8b-
4a
4g
=17
2f}
==
*-
!!!minrhy: 16
!!!meters: 4/4 ]  ZZ[6
!!!cut: Deine Schönheit wird vergehn (2-88) S. 258
!!!reg: Lothringen
!!!trd: PINCK, Louis: Verklingende Weisen, Bd 2, Metz 1928
!!!rhy1: X__X_X_  X__X_.XX__X__  X___
!!!rhy2: X__X__  X__X_X_X__X__  X___
!!!key: P0959  16  F 4/4 ]  ZZ[6
!!!mod: SECHSTONSKALA DUR ?]  AMBITUS[8
!!!kad: 313131
!!!akz: 3143_5631_3143_5631_3143_5631_
!!!fot: 'a__b__av_b__av_b__
!!!for: 'a__b__c__b__d__b__
!!!fok: 'V__\__V__\__V__\__
!! PHRAS[AUFTAKTIG]
!!!fkt: ???
!! LOTH VKL
!! PR[12] 2K[3] 2G[21] 3K[6] 3G[6] 4A[9] 4Ü[0] 5A[0] 6K[0] 6G[0]
!! 7K[0] 7G[0] 8A[0] MEHR[0] SI[45] ABS[33] SR[24] SP[21]
!! ST[7] 2k[3] 2g[18] 3k[12] 3g[6] 4d[0] 4ü[0] 5d[3] 6k[0] 6g[0]
!! 7k[0] 7g[0] 8d[0] mehr[0] si[42] dm[+3] sr[21] sp[21]
!! 1F[53] 2F[18] 3F[3] 4F[0] LF[0] 2P[0] 3P[0] 4P[0] TRI[0] DF[4] AB[34]
!! TF[0] U3K[0] U3[0] U4[0] U4Ü[0] U5[0] U6K[0] U6[0] U7K[0] U7[0]
!! N1[9] N2K[0] N2[3] N3K[0] N3[9] N4[9] N4Ü[0] N5[26] N6K[0] N6[21]
!!!n7k: 0] N7[6] O1[12] O2K[0] O2[6] O3K[0] O3[0] HÖ[0
